Newaita-dark/apps/128/xfce4-whiskermenu.svg

<?xml version="1.0" encoding="UTF-8"?>
<svg xmlns="http://www.w3.org/2000/svg" xmlns:xlink="http://www.w3.org/1999/xlink" width="128pt" height="128pt" viewBox="0 0 128 128" version="1.1">
<defs>
<linearGradient id="linear0" gradientUnits="userSpaceOnUse" x1="254" y1="233.5" x2="254" y2="254.666672" gradientTransform="matrix(0.250024,0,0,0.250024,-0.0385932,57.871264)">
<stop offset="0" style="stop-color:rgb(0%,0%,0%);stop-opacity:0.27451;"/>
<stop offset="1" style="stop-color:rgb(0%,0%,0%);stop-opacity:0;"/>
</linearGradient>
<radialGradient id="radial0" gradientUnits="userSpaceOnUse" cx="450.908936" cy="189.579361" fx="450.908936" fy="189.579361" r="21.166656" gradientTransform="matrix(0.000000696681,-0.31253,-0.562554,-0.000000406154,150.970211,258.497454)">
<stop offset="0" style="stop-color:rgb(0%,0%,0%);stop-opacity:0.313725;"/>
<stop offset="0.222222" style="stop-color:rgb(0%,0%,0%);stop-opacity:0.27451;"/>
<stop offset="1" style="stop-color:rgb(0%,0%,0%);stop-opacity:0;"/>
</radialGradient>
<radialGradient id="radial1" gradientUnits="userSpaceOnUse" cx="450.908936" cy="189.579361" fx="450.908936" fy="189.579361" r="21.166656" gradientTransform="matrix(-0.000000696681,0.31253,0.562554,0.000000406154,-61.003307,-25.993792)">
<stop offset="0" style="stop-color:rgb(0%,0%,0%);stop-opacity:0.313725;"/>
<stop offset="0.222222" style="stop-color:rgb(0%,0%,0%);stop-opacity:0.27451;"/>
<stop offset="1" style="stop-color:rgb(0%,0%,0%);stop-opacity:0;"/>
</radialGradient>
<radialGradient id="radial2" gradientUnits="userSpaceOnUse" cx="450.908936" cy="189.579361" fx="450.908936" fy="189.579361" r="21.166656" gradientTransform="matrix(-0.000000696681,-0.31253,0.562554,-0.000000406154,-61.003307,258.497454)">
<stop offset="0" style="stop-color:rgb(0%,0%,0%);stop-opacity:0.313725;"/>
<stop offset="0.222222" style="stop-color:rgb(0%,0%,0%);stop-opacity:0.27451;"/>
<stop offset="1" style="stop-color:rgb(0%,0%,0%);stop-opacity:0;"/>
</radialGradient>
<radialGradient id="radial3" gradientUnits="userSpaceOnUse" cx="450.908936" cy="189.579361" fx="450.908936" fy="189.579361" r="21.166656" gradientTransform="matrix(0.000000696681,0.31253,-0.562554,0.000000406154,150.970211,-25.993794)">
<stop offset="0" style="stop-color:rgb(0%,0%,0%);stop-opacity:0.313725;"/>
<stop offset="0.222222" style="stop-color:rgb(0%,0%,0%);stop-opacity:0.27451;"/>
<stop offset="1" style="stop-color:rgb(0%,0%,0%);stop-opacity:0;"/>
</radialGradient>
<linearGradient id="linear1" gradientUnits="userSpaceOnUse" x1="254" y1="191.166672" x2="254" y2="32.416664" >
<stop offset="0" style="stop-color:rgb(16.078431%,38.431373%,100%);stop-opacity:1;"/>
<stop offset="1" style="stop-color:rgb(16.078431%,47.45098%,100%);stop-opacity:1;"/>
</linearGradient>
<linearGradient id="linear2" gradientUnits="userSpaceOnUse" x1="232.833328" y1="254.666672" x2="232.833328" y2="-189.833328" gradientTransform="matrix(0.250024,0,0,0.250024,0,53.755133)">
<stop offset="0" style="stop-color:rgb(26.666667%,54.117647%,100%);stop-opacity:1;"/>
<stop offset="1" style="stop-color:rgb(50.980392%,69.411765%,100%);stop-opacity:1;"/>
</linearGradient>
</defs>
<g id="surface1">
<path style=" stroke:none;fill-rule:nonzero;fill:url(#linear0);" d="M 44.320312 116.25 L 45.644531 116.25 L 45.644531 121.398438 L 44.320312 121.398438 Z M 44.320312 116.25 "/>
<path style=" stroke:none;fill-rule:nonzero;fill:url(#radial0);" d="M 45.644531 116.25 L 56.230469 116.25 L 56.230469 110.960938 L 45.644531 110.960938 Z M 45.644531 116.25 "/>
<path style=" stroke:none;fill-rule:nonzero;fill:url(#radial1);" d="M 44.320312 116.25 L 33.738281 116.25 L 33.738281 121.542969 L 44.320312 121.542969 Z M 44.320312 116.25 "/>
<path style=" stroke:none;fill-rule:nonzero;fill:url(#radial2);" d="M 44.320312 116.25 L 33.738281 116.25 L 33.738281 110.960938 L 44.320312 110.960938 Z M 44.320312 116.25 "/>
<path style=" stroke:none;fill-rule:nonzero;fill:url(#radial3);" d="M 45.644531 116.25 L 56.230469 116.25 L 56.230469 121.542969 L 45.644531 121.542969 Z M 45.644531 116.25 "/>
<path style="fill-rule:nonzero;fill:url(#linear1);stroke-width:3;stroke-linecap:round;stroke-linejoin:round;stroke:rgb(12.941177%,12.941177%,12.941177%);stroke-opacity:1;stroke-miterlimit:4;" d="M 254.006994 32.413873 C 312.454537 32.413873 359.840637 67.348037 359.840637 110.437672 L 359.840637 113.140539 C 359.840637 156.230174 312.454537 191.164338 254.006994 191.164338 C 195.543826 191.164338 148.17335 156.230174 148.17335 113.140539 L 148.17335 110.437672 C 148.17335 67.348037 195.543826 32.413873 254.006994 32.413873 Z M 254.006994 32.413873 " transform="matrix(0.250024,0,0,0.250024,0,53.755133)"/>
<path style=" stroke:none;fill-rule:evenodd;fill:url(#linear2);" d="M 93.714844 6.386719 C 88.628906 7.160156 86.148438 38.644531 88.417969 42.898438 C 92.308594 40.359375 98.105469 28.222656 99.914062 24.085938 C 98.503906 27.921875 96.734375 46.128906 97.464844 46.339844 C 99 48.394531 119.839844 14.035156 113.78125 11.585938 C 112.910156 11.230469 107.0625 21.976562 102.1875 32.933594 C 102.242188 28.246094 106.027344 14.085938 104.488281 9.785156 C 101.398438 8.871094 95.53125 22.324219 93.128906 28.613281 C 92.378906 25.417969 96.425781 7.9375 93.714844 6.386719 Z M 47.628906 16.875 C 37.046875 16.875 37.046875 27.460938 42.335938 43.335938 C 44.984375 51.277344 39.691406 48.628906 37.851562 44.578125 C 29.105469 22.167969 21.167969 24.816406 15.875 27.460938 C 10.585938 32.753906 18.613281 49.1875 18.632812 52.339844 C 9.746094 67.605469 7.9375 85.675781 15.875 98.90625 C 37.046875 128.011719 66.152344 117.429688 112.171875 85.269531 C 123.890625 75.578125 119.074219 67.152344 109.035156 61.664062 C 84.753906 45.78125 58.214844 48.628906 58.214844 45.984375 C 58.214844 30.105469 60.039062 17.136719 47.628906 16.875 Z M 74.089844 67.085938 C 73.234375 71.753906 63.859375 82.191406 60.949219 85.214844 C 63.136719 82.746094 80.273438 73.484375 80.765625 74.09375 C 83.253906 74.714844 60.410156 104.355469 55.808594 99.722656 C 55.144531 99.054688 60.867188 90.828125 70.230469 83.625 C 65.929688 85.492188 53.441406 92.332031 48.878906 92.574219 C 46.84375 90.082031 59.949219 81.753906 62.746094 76.964844 C 59.511719 77.507812 42.414062 85.539062 39.933594 83.640625 C 38.679688 78.652344 68.652344 69.925781 74.089844 67.085938 Z M 74.089844 67.085938 "/>
<path style=" stroke:none;fill-rule:evenodd;fill:rgb(100%,100%,100%);fill-opacity:0.470588;" d="M 93.714844 6.71875 C 89.800781 7.3125 87.429688 26.097656 87.578125 36.660156 C 87.71875 25.894531 90.035156 9.261719 93.714844 8.703125 C 94.296875 9.035156 94.566406 10.109375 94.640625 11.617188 C 94.734375 9.09375 94.53125 7.183594 93.714844 6.71875 Z M 104.1875 10.074219 C 101.035156 10.035156 95.457031 22.851562 93.128906 28.945312 C 93.105469 28.851562 93.089844 28.746094 93.074219 28.632812 C 93.011719 29.648438 93.015625 30.449219 93.128906 30.929688 C 95.53125 24.636719 101.398438 11.1875 104.488281 12.101562 C 104.675781 12.632812 104.785156 13.3125 104.832031 14.101562 C 104.90625 12.441406 104.820312 11.046875 104.488281 10.117188 C 104.390625 10.089844 104.289062 10.074219 104.1875 10.074219 Z M 113.738281 11.90625 C 112.742188 11.898438 107.160156 22.160156 102.40625 32.777344 C 102.277344 33.75 102.195312 34.59375 102.1875 35.25 C 107.0625 24.292969 112.910156 13.546875 113.78125 13.898438 C 114.335938 14.125 114.664062 14.617188 114.804688 15.324219 C 115.039062 13.546875 114.761719 12.3125 113.78125 11.914062 C 113.769531 11.910156 113.753906 11.90625 113.738281 11.90625 Z M 47.628906 17.207031 C 41.097656 17.207031 38.597656 21.242188 38.882812 28.058594 C 39.144531 22.449219 41.757812 19.191406 47.628906 19.191406 C 56.914062 19.386719 58.230469 26.699219 58.304688 37.015625 C 58.363281 25.664062 57.5 17.414062 47.628906 17.207031 Z M 21.875 26.070312 C 19.632812 26.054688 17.613281 26.921875 15.875 27.792969 C 14.375 29.292969 13.945312 31.691406 14.101562 34.429688 C 14.226562 32.53125 14.75 30.902344 15.875 29.777344 C 21.167969 27.128906 29.105469 24.484375 37.851562 46.894531 C 39.476562 50.472656 43.796875 52.953125 42.957031 48.007812 C 42.332031 50.042969 39.183594 47.847656 37.851562 44.910156 C 31.976562 29.851562 26.464844 26.105469 21.875 26.070312 Z M 99.914062 26.398438 C 99.679688 26.941406 99.371094 27.621094 99.011719 28.394531 C 98.015625 34.246094 97.128906 43.777344 97.320312 46.132812 C 97.515625 40.957031 98.824219 29.375 99.914062 26.398438 Z M 58.222656 46.390625 C 58.21875 47.023438 58.214844 47.65625 58.214844 48.300781 C 58.214844 50.945312 84.753906 48.097656 109.035156 63.976562 C 114.53125 66.984375 118.460938 70.871094 118.96875 75.363281 C 119.566406 70.027344 115.324219 65.433594 109.035156 61.992188 C 84.992188 46.269531 58.738281 48.90625 58.222656 46.390625 Z M 18.359375 53.148438 C 13.320312 61.984375 10.640625 71.730469 10.84375 80.917969 C 11.039062 72.15625 13.78125 62.988281 18.632812 54.65625 C 18.632812 54.304688 18.53125 53.792969 18.359375 53.148438 Z M 74.089844 69.398438 C 73.84375 69.527344 73.542969 69.671875 73.199219 69.824219 C 70.640625 74.929688 63.65625 82.710938 61.078125 85.410156 C 61.804688 84.679688 63.585938 83.476562 65.796875 82.125 C 69.421875 77.847656 73.539062 72.417969 74.089844 69.398438 Z M 61.078125 85.410156 C 61.03125 85.457031 60.988281 85.503906 60.949219 85.546875 C 60.988281 85.507812 61.039062 85.453125 61.078125 85.410156 Z M 80.671875 76.378906 C 80.59375 76.378906 80.472656 76.40625 80.320312 76.453125 C 76.957031 82.886719 61.132812 102.269531 56.367188 100.417969 C 55.851562 101.300781 55.652344 101.878906 55.808594 102.035156 C 60.410156 106.671875 83.253906 77.03125 80.765625 76.410156 C 80.75 76.390625 80.71875 76.378906 80.671875 76.378906 Z M 62.746094 77.296875 C 59.710938 77.804688 44.476562 84.90625 40.554688 84.214844 C 40.027344 84.828125 39.796875 85.414062 39.933594 85.957031 C 42.066406 87.589844 54.996094 81.882812 60.640625 79.90625 C 61.546875 78.96875 62.285156 78.082031 62.746094 77.296875 Z M 70.230469 83.957031 C 66.027344 85.78125 54 92.355469 49.199219 92.875 C 48.65625 93.71875 48.488281 94.410156 48.878906 94.886719 C 52.136719 94.714844 59.417969 91.1875 64.890625 88.5 C 66.5 86.992188 68.285156 85.453125 70.230469 83.957031 Z M 70.230469 83.957031 "/>
<path style=" stroke:none;fill-rule:evenodd;fill:rgb(0%,0%,0%);fill-opacity:0.235294;" d="M 94.632812 9.183594 C 94.398438 14.886719 92.714844 23.585938 93.089844 26.125 C 93.394531 21.722656 94.878906 13.542969 94.632812 9.183594 Z M 104.824219 11.667969 C 104.523438 17.679688 102.230469 27.027344 102.1875 30.667969 C 102.277344 30.464844 102.371094 30.261719 102.460938 30.054688 C 103.195312 24.835938 105.128906 16.257812 104.824219 11.667969 Z M 114.78125 12.898438 C 113.417969 22.230469 98.742188 45.785156 97.464844 44.074219 C 97.398438 44.054688 97.355469 43.894531 97.328125 43.621094 C 97.257812 45.238281 97.292969 46.289062 97.464844 46.339844 C 98.867188 48.214844 116.371094 19.722656 114.78125 12.898438 Z M 99.914062 21.816406 C 98.105469 25.957031 92.308594 38.09375 88.417969 40.632812 C 87.902344 39.664062 87.632812 37.28125 87.582031 34.175781 C 87.519531 38.371094 87.78125 41.707031 88.417969 42.898438 C 91.765625 40.714844 96.523438 31.425781 98.9375 26.242188 C 99.261719 24.285156 99.597656 22.683594 99.914062 21.816406 Z M 38.890625 25.609375 C 38.648438 30.128906 39.957031 36.195312 42.335938 43.335938 C 42.617188 44.175781 42.804688 44.894531 42.921875 45.507812 C 43.203125 44.753906 43.097656 43.347656 42.335938 41.070312 C 40.335938 35.0625 39.089844 29.816406 38.890625 25.609375 Z M 14.113281 31.980469 C 13.65625 37.925781 17.199219 46.601562 18.308594 50.640625 C 18.414062 50.453125 18.523438 50.261719 18.632812 50.074219 C 18.621094 47.832031 14.554688 38.875 14.113281 31.980469 Z M 58.304688 34.59375 C 58.285156 37.46875 58.214844 40.53125 58.214844 43.714844 C 58.214844 43.746094 58.21875 43.773438 58.226562 43.800781 C 58.253906 40.558594 58.328125 37.460938 58.304688 34.59375 Z M 74.089844 64.816406 C 68.652344 67.65625 38.679688 76.386719 39.933594 81.371094 C 40.128906 81.523438 40.417969 81.613281 40.785156 81.644531 C 45.386719 76.902344 66.503906 70.425781 73.011719 67.589844 C 73.5625 66.546875 73.945312 65.601562 74.089844 64.816406 Z M 80.671875 71.796875 C 79.675781 71.792969 71.832031 75.878906 66.285156 79.230469 C 64.191406 81.730469 62.210938 83.890625 61.078125 85.078125 C 63.453125 82.699219 77.019531 75.269531 80.136719 74.195312 C 80.898438 72.8125 81.171875 71.929688 80.765625 71.828125 C 80.75 71.808594 80.71875 71.796875 80.671875 71.796875 Z M 61.078125 85.078125 C 61.03125 85.125 60.988281 85.171875 60.949219 85.214844 C 60.988281 85.175781 61.039062 85.121094 61.078125 85.078125 Z M 118.953125 72.910156 C 118.554688 76.046875 116.480469 79.4375 112.171875 83.003906 C 66.152344 115.160156 37.046875 125.746094 15.875 96.636719 C 12.628906 91.222656 11.011719 85 10.847656 78.488281 C 10.660156 85.816406 12.253906 92.867188 15.875 98.90625 C 37.046875 128.011719 66.152344 117.429688 112.171875 85.269531 C 117.539062 80.832031 119.4375 76.65625 118.953125 72.910156 Z M 62.746094 76.964844 C 62.226562 77.050781 61.339844 77.335938 60.214844 77.742188 C 55.523438 82.433594 47.230469 88.285156 48.878906 90.304688 C 49.046875 90.296875 49.226562 90.277344 49.410156 90.253906 C 51.996094 86.667969 60.550781 80.726562 62.746094 76.964844 Z M 70.230469 83.625 C 68.882812 84.210938 66.734375 85.28125 64.277344 86.488281 C 58.53125 92.003906 55.300781 96.945312 55.808594 97.453125 C 56.007812 97.65625 56.242188 97.792969 56.507812 97.867188 C 58.3125 94.914062 63.261719 88.984375 70.230469 83.625 Z M 70.230469 83.625 "/>
<path style="fill:none;stroke-width:3;stroke-linecap:butt;stroke-linejoin:miter;stroke:rgb(12.941177%,12.941177%,12.941177%);stroke-opacity:1;stroke-miterlimit:4;" d="M 374.823581 -189.455564 C 354.481774 -186.36211 344.560846 -60.436635 353.638104 -43.422635 C 369.199118 -53.577915 392.384404 -102.120154 399.618088 -118.665449 C 393.978002 -103.323165 386.900553 -30.501994 389.822149 -29.658324 C 395.962187 -21.440359 479.313603 -158.864736 455.081542 -168.660675 C 451.5975 -170.082414 428.209108 -127.102144 408.71097 -83.278204 C 408.929699 -102.026413 424.068878 -158.66163 417.913216 -175.863112 C 405.555021 -179.519013 382.088512 -125.711652 372.480055 -100.557804 C 369.480341 -113.337833 385.666296 -183.253032 374.823581 -189.455564 Z M 190.497433 -147.506445 C 148.17335 -147.506445 148.17335 -105.166739 169.32758 -41.672802 C 179.920318 -9.91021 158.750465 -20.502949 151.391793 -36.704526 C 116.410758 -126.336592 84.66379 -115.743853 63.493937 -105.166739 C 42.339707 -83.996885 74.446016 -18.268787 74.524133 -5.660616 C 38.980653 55.396053 31.746968 127.670402 63.493937 180.587223 C 148.17335 296.997982 264.584108 254.673898 448.644657 126.045557 C 495.515181 87.283633 476.251395 53.583727 436.09898 31.632698 C 338.983254 -31.892486 232.83714 -20.502949 232.83714 -31.080063 C 232.83714 -94.589624 240.133318 -146.45967 190.497433 -147.506445 Z M 296.331077 53.318127 C 292.909529 71.988219 255.413109 113.734232 243.773596 125.826828 C 252.52276 115.952771 321.06309 78.909433 323.031652 81.3467 C 332.983827 83.830838 241.617552 202.382017 223.213059 183.852536 C 220.557063 181.180917 243.445502 148.277809 280.895051 119.46806 C 263.693569 126.936097 213.745213 154.292859 195.496956 155.261517 C 187.357108 145.293719 239.773978 111.9844 250.960409 92.829979 C 238.024145 95.001646 169.64005 127.123579 159.719123 119.530554 C 154.703977 99.579334 274.583154 64.676417 296.331077 53.318127 Z M 296.331077 53.318127 " transform="matrix(0.250024,0,0,0.250024,0,53.755133)"/>
</g>
</svg>

<svg xmlns="http://www.w3.org/2000/svg" width="128pt" height="128pt" viewBox="0 0 128 128"><defs><linearGradient id="a" gradientUnits="userSpaceOnUse" x1="254" y1="233.5" x2="254" y2="254.667" gradientTransform="matrix(.25002 0 0 .25002 -.039 57.871)"><stop offset="0" stop-opacity=".275"/><stop offset="1" stop-opacity="0"/></linearGradient><radialGradient id="b" gradientUnits="userSpaceOnUse" cx="450.909" cy="189.579" fx="450.909" fy="189.579" r="21.167" gradientTransform="matrix(0 -.31253 -.56255 0 150.97 258.497)"><stop offset="0" stop-opacity=".314"/><stop offset=".222" stop-opacity=".275"/><stop offset="1" stop-opacity="0"/></radialGradient><radialGradient id="c" gradientUnits="userSpaceOnUse" cx="450.909" cy="189.579" fx="450.909" fy="189.579" r="21.167" gradientTransform="matrix(0 .31253 .56255 0 -61.003 -25.994)"><stop offset="0" stop-opacity=".314"/><stop offset=".222" stop-opacity=".275"/><stop offset="1" stop-opacity="0"/></radialGradient><radialGradient id="d" gradientUnits="userSpaceOnUse" cx="450.909" cy="189.579" fx="450.909" fy="189.579" r="21.167" gradientTransform="matrix(0 -.31253 .56255 0 -61.003 258.497)"><stop offset="0" stop-opacity=".314"/><stop offset=".222" stop-opacity=".275"/><stop offset="1" stop-opacity="0"/></radialGradient><radialGradient id="e" gradientUnits="userSpaceOnUse" cx="450.909" cy="189.579" fx="450.909" fy="189.579" r="21.167" gradientTransform="matrix(0 .31253 -.56255 0 150.97 -25.994)"><stop offset="0" stop-opacity=".314"/><stop offset=".222" stop-opacity=".275"/><stop offset="1" stop-opacity="0"/></radialGradient><linearGradient id="f" gradientUnits="userSpaceOnUse" x1="254" y1="191.167" x2="254" y2="32.417"><stop offset="0" stop-color="#2962ff"/><stop offset="1" stop-color="#2979ff"/></linearGradient><linearGradient id="g" gradientUnits="userSpaceOnUse" x1="232.833" y1="254.667" x2="232.833" y2="-189.833" gradientTransform="matrix(.25002 0 0 .25002 0 53.755)"><stop offset="0" stop-color="#448aff"/><stop offset="1" stop-color="#82b1ff"/></linearGradient></defs><path d="M44.32 116.25h1.325v5.148H44.32zm0 0" fill="url(#a)"/><path d="M45.645 116.25H56.23v-5.29H45.645zm0 0" fill="url(#b)"/><path d="M44.32 116.25H33.738v5.293H44.32zm0 0" fill="url(#c)"/><path d="M44.32 116.25H33.738v-5.29H44.32zm0 0" fill="url(#d)"/><path d="M45.645 116.25H56.23v5.293H45.645zm0 0" fill="url(#e)"/><path d="M254.007 32.414c58.448 0 105.834 34.934 105.834 78.024v2.703c0 43.09-47.386 78.023-105.834 78.023-58.463 0-105.834-34.934-105.834-78.023v-2.703c0-43.09 47.37-78.024 105.834-78.024zm0 0" transform="matrix(.25002 0 0 .25002 0 53.755)" fill="url(#f)" stroke-width="3" stroke-linecap="round" stroke-linejoin="round" stroke="#212121"/><path d="M93.715 6.387c-5.086.773-7.567 32.258-5.297 36.511 3.89-2.539 9.687-14.675 11.496-18.812-1.41 3.836-3.18 22.043-2.45 22.254C99 48.395 119.84 14.035 113.782 11.586c-.87-.356-6.719 10.39-11.594 21.348.055-4.688 3.84-18.848 2.301-23.149-3.09-.914-8.957 12.54-11.36 18.828-.75-3.195 3.298-20.675.587-22.226zM47.629 16.875c-10.582 0-10.582 10.586-5.293 26.46 2.648 7.942-2.645 5.294-4.484 1.243-8.747-22.41-16.684-19.762-21.977-17.117-5.29 5.293 2.738 21.727 2.758 24.879-8.887 15.265-10.695 33.336-2.758 46.566 21.172 29.106 50.277 18.524 96.297-13.636 11.719-9.692 6.902-18.118-3.137-23.606-24.281-15.883-50.82-13.035-50.82-15.68 0-15.879 1.824-28.847-10.586-29.109zm26.46 50.21c-.855 4.669-10.23 15.106-13.14 18.13 2.188-2.469 19.324-11.73 19.817-11.121 2.488.62-20.356 30.261-24.957 25.629-.664-.668 5.058-8.895 14.421-16.098-4.3 1.867-16.789 8.707-21.351 8.95-2.035-2.493 11.07-10.821 13.867-15.61-3.234.543-20.332 8.574-22.812 6.676-1.254-4.989 28.718-13.715 34.156-16.555zm0 0" fill-rule="evenodd" fill="url(#g)"/><path d="M93.715 6.719c-3.914.593-6.285 19.379-6.137 29.941.14-10.765 2.457-27.398 6.137-27.957.582.332.851 1.406.926 2.914.093-2.523-.11-4.433-.926-4.898zm10.472 3.355c-3.152-.039-8.73 12.778-11.058 18.871a3.03 3.03 0 0 1-.055-.312c-.062 1.015-.058 1.816.055 2.297 2.402-6.293 8.27-19.742 11.36-18.828.187.53.296 1.21.343 2 .074-1.66-.012-3.055-.344-3.985a1.12 1.12 0 0 0-.3-.043zm9.551 1.832c-.996-.008-6.578 10.254-11.332 20.871-.129.973-.21 1.817-.219 2.473 4.876-10.957 10.723-21.703 11.594-21.352.555.227.883.72 1.024 1.426.234-1.777-.043-3.011-1.024-3.41a.14.14 0 0 0-.043-.008zm-66.11 5.301c-6.53 0-9.03 4.035-8.745 10.852.262-5.61 2.875-8.868 8.746-8.868 9.285.196 10.601 7.508 10.676 17.825.058-11.352-.805-19.602-10.676-19.809zM21.876 26.07c-2.242-.015-4.262.852-6 1.723-1.5 1.5-1.93 3.898-1.773 6.637.125-1.899.648-3.528 1.773-4.653 5.293-2.648 13.23-5.293 21.977 17.118 1.625 3.578 5.945 6.058 5.105 1.113-.625 2.035-3.773-.16-5.105-3.098-5.875-15.058-11.387-18.805-15.977-18.84zm78.04.328a83.654 83.654 0 0 1-.903 1.997c-.996 5.851-1.883 15.382-1.692 17.738.196-5.176 1.504-16.758 2.594-19.735zM58.222 46.391c-.004.632-.008 1.265-.008 1.91 0 2.644 26.539-.203 50.82 15.676 5.496 3.007 9.426 6.894 9.934 11.386.597-5.336-3.645-9.93-9.934-13.37C84.992 46.27 58.738 48.905 58.223 46.39zm-39.864 6.757c-5.039 8.836-7.718 18.582-7.515 27.77.195-8.762 2.937-17.93 7.789-26.262 0-.351-.102-.863-.274-1.508zm55.73 16.25c-.245.13-.546.274-.89.426-2.558 5.106-9.543 12.887-12.12 15.586.726-.73 2.507-1.933 4.718-3.285 3.625-4.277 7.742-9.707 8.293-12.727zM61.08 85.41zm19.593-9.031c-.078 0-.2.027-.352.074-3.363 6.434-19.187 25.817-23.953 23.965-.515.883-.715 1.46-.558 1.617 4.601 4.637 27.445-25.004 24.957-25.625-.016-.02-.047-.031-.094-.031zm-17.926.918c-3.035.508-18.27 7.61-22.191 6.918-.528.613-.758 1.2-.621 1.742 2.132 1.633 15.062-4.074 20.707-6.05.906-.938 1.644-1.825 2.105-2.61zm7.484 6.66C66.027 85.781 54 92.355 49.2 92.875c-.544.844-.712 1.535-.321 2.012 3.258-.172 10.539-3.7 16.012-6.387a72.293 72.293 0 0 1 5.34-4.543zm0 0" fill-rule="evenodd" fill="#fff" fill-opacity=".471"/><path d="M94.633 9.184c-.235 5.703-1.918 14.402-1.543 16.941.305-4.402 1.789-12.582 1.543-16.941zm10.191 2.484c-.3 6.012-2.594 15.36-2.636 19 .09-.203.183-.406.273-.613.734-5.22 2.668-13.797 2.363-18.387zm9.957 1.23c-1.363 9.332-16.039 32.887-17.316 31.176-.067-.02-.11-.18-.137-.453-.07 1.617-.035 2.668.137 2.719 1.402 1.875 18.906-26.617 17.316-33.442zm-14.867 8.918c-1.809 4.141-7.605 16.278-11.496 18.817-.516-.969-.785-3.352-.836-6.457-.062 4.195.2 7.531.836 8.722 3.348-2.183 8.105-11.472 10.52-16.656.324-1.957.66-3.558.976-4.426zM38.891 25.61c-.243 4.52 1.066 10.586 3.445 17.727.281.84.469 1.559.586 2.172.281-.754.176-2.16-.586-4.438-2-6.008-3.246-11.254-3.445-15.46zM14.113 31.98c-.457 5.946 3.086 14.622 4.196 18.66.105-.187.214-.378.324-.566-.012-2.242-4.078-11.199-4.52-18.094zm44.192 2.614c-.02 2.875-.09 5.937-.09 9.12 0 .032.004.06.012.087.027-3.242.101-6.34.078-9.207zM74.09 64.816c-5.438 2.84-35.41 11.57-34.156 16.555.195.152.484.242.851.274 4.602-4.743 25.719-11.22 32.227-14.055.55-1.043.933-1.988 1.078-2.774zm6.582 6.98c-.996-.003-8.84 4.083-14.387 7.434a128.56 128.56 0 0 1-5.207 5.848C63.453 82.7 77.02 75.27 80.137 74.195c.761-1.382 1.035-2.265.629-2.367-.016-.02-.047-.031-.094-.031zM61.078 85.079zm57.875-12.168c-.398 3.137-2.473 6.528-6.781 10.094-46.02 32.156-75.125 42.742-96.297 13.633-3.246-5.414-4.863-11.637-5.027-18.149-.188 7.328 1.406 14.38 5.027 20.418 21.172 29.106 50.277 18.524 96.297-13.636 5.367-4.438 7.266-8.614 6.781-12.36zm-56.207 4.055c-.52.086-1.406.37-2.531.777-4.692 4.692-12.985 10.543-11.336 12.563.168-.008.348-.028.531-.051 2.586-3.586 11.14-9.527 13.336-13.29zm7.484 6.66c-1.347.586-3.496 1.656-5.953 2.863-5.746 5.516-8.976 10.457-8.468 10.965.199.203.433.34.699.414 1.804-2.953 6.754-8.883 13.722-14.242zm0 0" fill-rule="evenodd" fill-opacity=".235"/><path d="M93.715 6.387c-5.086.773-7.567 32.258-5.297 36.511 3.89-2.539 9.688-14.675 11.496-18.812-1.41 3.836-3.18 22.043-2.45 22.254C99 48.395 119.84 14.035 113.782 11.586c-.87-.356-6.718 10.39-11.593 21.348.054-4.688 3.84-18.848 2.3-23.149-3.09-.914-8.957 12.54-11.359 18.828-.75-3.195 3.297-20.676.586-22.226zM47.629 16.875c-10.582 0-10.582 10.586-5.293 26.46 2.648 7.942-2.645 5.294-4.484 1.243-8.747-22.41-16.684-19.762-21.977-17.117-5.29 5.293 2.738 21.726 2.758 24.879-8.887 15.265-10.695 33.336-2.758 46.566 21.172 29.106 50.277 18.524 96.297-13.636 11.719-9.692 6.902-18.118-3.137-23.606-24.281-15.883-50.82-13.035-50.82-15.68 0-15.879 1.824-28.847-10.586-29.109zm26.46 50.21c-.855 4.669-10.23 15.106-13.14 18.13 2.188-2.469 19.324-11.73 19.817-11.121 2.488.62-20.356 30.261-24.957 25.629-.664-.668 5.058-8.895 14.422-16.098-4.301 1.867-16.79 8.707-21.352 8.95-2.035-2.493 11.07-10.821 13.867-15.61-3.234.543-20.332 8.574-22.812 6.676-1.254-4.989 28.718-13.715 34.156-16.555zm0 0" fill="none" stroke-width=".7500600000000001" stroke="#212121"/></svg>
